X: 1
T: "IS IT THE PRIEST YOU WANT?" -- JIG
B: Ryan's Mammoth Collection of Fiddle Tunes
R: jig
M: 6/8
L: 1/8
Z: Contributed 20000831211534 by John Chambers John.Chambers:weema.com
K: G
"4"ue \
| "4"vedB (d2.B) | d2B B2"4"e | "4"edB d2B | c2A A2"4"e \
| "4"edB d2B | d2B B2"4"e | edB {a}gfg | B2G G2 :|
|: ug \
| (vg2.g) gaf | (g2.e) "SEGUE"e2e | a2a aga | b2e e2f \
| g2g gaf | g2e e2e | {f}edB gfg | B2G G2 :|
